X:1
T:Windmill
L:1/8
Q:192
K:B
G,B,G4|G,B,G4|A3 BAB|AFD4|
D2G,2B,C|D6|D2G,2B,C|A,6|
G,B,G4|G,B,G4|A3 BAB|AFD4|
D2G,2B,C|D4D2|G,6|G,4z2|
z6|z6|GBg4|GBg4|
a3 bab|afd4|d2G2Bc|d6|
d2G2Bc|A6|G,B,G4|G,B,G4|
A3 BAB|AFD4|D2G,2B,C|D4D2|
G,6|G